src/images/campfire.svg

<svg width="398" height="441" viewBox="0 0 398 441" fill="none" xmlns="http://www.w3.org/2000/svg">
<g clip-path="url(#clip0)">
<path d="M370.82 300.568C366.033 289.086 359.43 277.78 349.774 264.721C325.426 231.942 317.998 158.845 317.915 158.144C317.585 154.638 315.274 151.746 312.22 150.694C309.084 149.643 305.7 150.607 303.471 153.236C274.419 188.031 286.634 241.758 293.237 263.231C295.053 269.103 297.034 276.027 298.436 283.039C309.166 339.745 288.449 365.425 283.58 370.596C278.875 371.999 275.656 371.297 272.685 367.879C262.451 355.872 259.067 316.519 263.854 265.247C264.845 254.817 264.596 245.439 263.193 236.674C253.098 173.655 216.081 133.231 206.657 119.055C180.741 78.0366 178.099 9.76095 178.017 9.14743C177.934 5.90456 176.201 3.01227 173.477 1.60994C170.836 0.20762 167.617 0.382911 165.141 2.22346C121.893 33.6881 125.607 109.501 131.632 151.834C133.035 161.65 135.759 171.642 140.463 184.263C157.218 229.4 137.162 287.684 136.997 288.21C136.832 288.736 136.667 289.174 136.584 289.7C134.026 304.074 129.734 312.663 124.947 312.663C124.451 312.663 123.956 312.575 123.378 312.4C117.518 311.085 114.465 304.424 114.382 298.64C114.052 223.878 43.9795 198.724 43.2367 198.461C40.1003 197.409 36.6339 198.373 34.4879 201.09C32.2595 203.807 31.8468 207.576 33.3324 210.731C34.1578 212.572 36.7989 220.635 34.9831 249.12C33.415 274.712 29.0406 300.042 22.0251 324.32C5.35296 382.516 7.99409 437.645 8.15916 440.274C20.9794 589.54 221.463 615.695 340.446 531.601C353.487 522.398 364.134 511.88 371.975 500.311C415.885 435.454 390.051 347.37 370.82 300.568ZM65.8522 443.167C66.0998 447.987 62.6333 452.106 58.0939 452.369H57.5987C53.2243 452.369 49.5927 448.776 49.3451 444.131C48.6023 431.334 48.7674 417.925 49.6753 403.376C50.0054 398.555 53.9671 394.962 58.5066 395.224C63.046 395.574 66.5125 399.781 66.1823 404.602C65.2736 418.451 65.1094 431.071 65.8522 443.167ZM69.8956 365.513C69.4004 369.983 65.8514 373.226 61.7246 373.226C61.3945 373.226 61.0643 373.226 60.6516 373.138C56.1947 372.524 52.9759 368.23 53.4711 363.409L57.4328 329.578C58.0105 324.845 62.0547 321.427 66.6767 321.953C71.2162 322.567 74.435 326.949 73.8573 331.769L69.8956 365.513Z" fill="#3D3D3D"/>
<path d="M314.982 120.529C310.48 119.788 307.393 115.321 308.087 110.541C308.602 106.98 311.584 88.7495 319.677 79.5827C322.792 76.048 328.007 75.8639 331.344 79.1848C334.669 82.4925 334.838 88.0396 331.719 91.5743C328.294 95.4562 325.375 106.565 324.401 113.212C323.704 117.942 319.55 121.261 314.982 120.529Z" fill="#3D3D3D"/>
<path d="M14.0903 164.186C12.5106 157.668 8.58523 146.919 4.81749 143.409C1.38815 140.216 1.04562 134.679 4.05156 131.042C7.05007 127.396 12.2605 127.023 15.6981 130.228C24.5921 138.509 29.2389 156.342 30.0816 159.83C31.2098 164.516 28.5505 169.283 24.1415 170.49C19.6351 171.693 15.2136 168.795 14.0903 164.186Z" fill="#3D3D3D"/>
</g>
<defs>
<clipPath id="clip0">
<rect width="396.17" height="439.666" fill="white" transform="translate(0.955933 0.62146)"/>
</clipPath>
</defs>
</svg>

<svg width="398" height="441" fill="none" xmlns="http://www.w3.org/2000/svg"><g clip-path="url(#clip0)" fill="#3D3D3D"><path d="M370.82 300.568c-4.787-11.482-11.39-22.788-21.046-35.847-24.348-32.779-31.776-105.876-31.859-106.577-.33-3.506-2.641-6.398-5.695-7.45-3.136-1.051-6.52-.087-8.749 2.542-29.052 34.795-16.837 88.522-10.234 109.995 1.816 5.872 3.797 12.796 5.199 19.808 10.73 56.706-9.987 82.386-14.856 87.557-4.705 1.403-7.924.701-10.895-2.717-10.234-12.007-13.618-51.36-8.831-102.632.991-10.43.742-19.808-.661-28.573-10.095-63.019-47.112-103.443-56.536-117.619-25.916-41.018-28.558-109.294-28.64-109.908-.083-3.242-1.816-6.135-4.54-7.537-2.641-1.402-5.86-1.227-8.336.613-43.248 31.465-39.534 107.278-33.509 149.611 1.403 9.816 4.127 19.808 8.831 32.429 16.755 45.137-3.301 103.421-3.466 103.947-.165.526-.33.964-.413 1.49-2.558 14.374-6.85 22.963-11.637 22.963-.496 0-.991-.088-1.569-.263-5.86-1.315-8.913-7.976-8.996-13.76-.33-74.762-70.403-99.916-71.145-100.179-3.137-1.052-6.603-.088-8.75 2.629-2.227 2.717-2.64 6.486-1.155 9.641.826 1.841 3.467 9.904 1.651 38.389-1.568 25.592-5.942 50.922-12.958 75.2C5.353 382.516 7.995 437.645 8.16 440.274c12.82 149.266 213.304 175.421 332.287 91.327 13.041-9.203 23.688-19.721 31.529-31.29 43.91-64.857 18.076-152.941-1.155-199.743zM65.852 443.167c.248 4.82-3.219 8.939-7.758 9.202h-.495c-4.375 0-8.006-3.593-8.254-8.238-.743-12.797-.578-26.206.33-40.755.33-4.821 4.292-8.414 8.832-8.152 4.539.35 8.006 4.557 7.675 9.378-.908 13.849-1.073 26.469-.33 38.565zm4.044-77.654c-.496 4.47-4.045 7.713-8.171 7.713-.33 0-.66 0-1.073-.088-4.457-.614-7.676-4.908-7.18-9.729l3.96-33.831c.578-4.733 4.623-8.151 9.245-7.625 4.54.614 7.758 4.996 7.18 9.816l-3.961 33.744zM314.982 120.529c-4.502-.741-7.589-5.208-6.895-9.988.515-3.561 3.497-21.791 11.59-30.958 3.115-3.535 8.33-3.72 11.667-.398 3.325 3.308 3.494 8.855.375 12.39-3.425 3.881-6.344 14.99-7.318 21.637-.697 4.73-4.851 8.049-9.419 7.317zM14.09 164.186c-1.58-6.518-5.505-17.267-9.273-20.777-3.429-3.193-3.771-8.73-.765-12.367 2.998-3.646 8.209-4.019 11.646-.814 8.894 8.281 13.54 26.114 14.384 29.602 1.128 4.686-1.532 9.453-5.94 10.66-4.507 1.203-8.928-1.695-10.052-6.304z"/></g><defs><clipPath id="clip0"><path fill="#fff" transform="translate(.956 .621)" d="M0 0h396.17v439.666H0z"/></clipPath></defs></svg>
